X:630
T:Arkansas Traveller
T:Tune
M:4/4
L:1/8
K:A
P:A
E2|"A"AcBA "D"F2F2|"E7"E2E2 "A"A3A|"E"B2B2 "A"c2c2|"D"BcBA "E"F2E2|
"A"AcBA "D"F2F2|"E7"E2E2 "A"A2e2|"A"agae "D"f2ed|"E"c2B2 "A"A2:|
P:B
|:c2|"A"e2cc "E"d2B2|"A"c2A2 "E"B2E2|"A"A2cc "E"B2d2|"A"cde2 "E"B4|
"A"e2cc "E"d2B2|"A"c2A2 "E7"B2e2|"A"agae "D"f2ed|"E"c2B2 "A"A2:|
T:Harmony
P:A
z2|"A"a2ee "D"f2d2|"E7"e2g2 "A"a2f2|"E"e2e2 "A"z2e2|"D"z2e2 "E"z2e2|
"A"a2ee "D"f2d2|"E7"e2g2 "A"a2f2|"A"e2e2 "D"z2e2|"E"z2B2 "A"A2:|
P:B
|:z2|"A"z2ee "E"z2d2|"A"z2cc "E"z2B2|"A"z2AA "E"z2G2|"A"A2F2 "E"E4|
|:z2|"A"z2ee "E"z2d2|"A"z2cc "E"z2B2|"A"z2AA "D"z2F2|"E"E2G2 "A"A2:|

